static/img/kroki/15a53c15da85ce6c451bbecae0c25d2f.svg

<?xml version="1.0" encoding="us-ascii" standalone="no"?><svg xmlns="http://www.w3.org/2000/svg" xmlns:xlink="http://www.w3.org/1999/xlink" contentStyleType="text/css" height="352px" preserveAspectRatio="none" style="width:1007px;height:352px;" version="1.1" viewBox="0 0 1007 352" width="1007px" zoomAndPan="magnify"><defs/><g><!--class azure_cosmos_db_account--><g id="elem_azure_cosmos_db_account"><rect codeLine="23" fill="#3D176E" height="39.7891" id="azure_cosmos_db_account" rx="2.5" ry="2.5" style="stroke:#000D19;stroke-width:0.5;" width="261" x="249" y="7"/><ellipse cx="264" cy="26.8945" fill="#ADD1B2" rx="11" ry="11" style="stroke:#181818;stroke-width:1.0;"/><path d="M266.9688,32.5352 Q266.3906,32.832 265.75,32.9727 Q265.1094,33.1289 264.4063,33.1289 Q261.9063,33.1289 260.5781,31.4883 Q259.2656,29.832 259.2656,26.707 Q259.2656,23.582 260.5781,21.9258 Q261.9063,20.2695 264.4063,20.2695 Q265.1094,20.2695 265.75,20.4258 Q266.4063,20.582 266.9688,20.8789 L266.9688,23.5977 Q266.3438,23.0195 265.75,22.7539 Q265.1563,22.4727 264.5313,22.4727 Q263.1875,22.4727 262.5,23.5508 Q261.8125,24.6133 261.8125,26.707 Q261.8125,28.8008 262.5,29.8789 Q263.1875,30.9414 264.5313,30.9414 Q265.1563,30.9414 265.75,30.6758 Q266.3438,30.3945 266.9688,29.8164 L266.9688,32.5352 Z " fill="#000000"/><text fill="#D9B8FF" font-family="Helvetica" font-size="17" lengthAdjust="spacing" textLength="219" x="283" y="32.7798">azure_cosmos_db_account</text></g><!--class azure_cosmos_db_sql_database--><g id="elem_azure_cosmos_db_sql_database"><rect codeLine="26" fill="#3D176E" height="39.7891" id="azure_cosmos_db_sql_database" rx="2.5" ry="2.5" style="stroke:#000D19;stroke-width:0.5;" width="303" x="228" y="106.79"/><ellipse cx="243" cy="126.6845" fill="#ADD1B2" rx="11" ry="11" style="stroke:#181818;stroke-width:1.0;"/><path d="M245.9688,132.3252 Q245.3906,132.622 244.75,132.7627 Q244.1094,132.9189 243.4063,132.9189 Q240.9063,132.9189 239.5781,131.2783 Q238.2656,129.622 238.2656,126.497 Q238.2656,123.372 239.5781,121.7158 Q240.9063,120.0595 243.4063,120.0595 Q244.1094,120.0595 244.75,120.2158 Q245.4063,120.372 245.9688,120.6689 L245.9688,123.3877 Q245.3438,122.8095 244.75,122.5439 Q244.1563,122.2627 243.5313,122.2627 Q242.1875,122.2627 241.5,123.3408 Q240.8125,124.4033 240.8125,126.497 Q240.8125,128.5908 241.5,129.6689 Q242.1875,130.7314 243.5313,130.7314 Q244.1563,130.7314 244.75,130.4658 Q245.3438,130.1845 245.9688,129.6064 L245.9688,132.3252 Z " fill="#000000"/><text fill="#D9B8FF" font-family="Helvetica" font-size="17" lengthAdjust="spacing" textLength="261" x="262" y="132.5698">azure_cosmos_db_sql_database</text></g><!--class azure_cosmos_db_sql_database_client_encryption_key--><g id="elem_azure_cosmos_db_sql_database_client_encryption_key"><rect codeLine="29" fill="#3D176E" height="39.7891" id="azure_cosmos_db_sql_database_client_encryption_key" rx="2.5" ry="2.5" style="stroke:#000D19;stroke-width:0.5;" width="495" x="7" y="306.37"/><ellipse cx="22" cy="326.2645" fill="#ADD1B2" rx="11" ry="11" style="stroke:#181818;stroke-width:1.0;"/><path d="M24.9688,331.9052 Q24.3906,332.202 23.75,332.3427 Q23.1094,332.4989 22.4063,332.4989 Q19.9063,332.4989 18.5781,330.8583 Q17.2656,329.202 17.2656,326.077 Q17.2656,322.952 18.5781,321.2958 Q19.9063,319.6395 22.4063,319.6395 Q23.1094,319.6395 23.75,319.7958 Q24.4063,319.952 24.9688,320.2489 L24.9688,322.9677 Q24.3438,322.3895 23.75,322.1239 Q23.1563,321.8427 22.5313,321.8427 Q21.1875,321.8427 20.5,322.9208 Q19.8125,323.9833 19.8125,326.077 Q19.8125,328.1708 20.5,329.2489 Q21.1875,330.3114 22.5313,330.3114 Q23.1563,330.3114 23.75,330.0458 Q24.3438,329.7645 24.9688,329.1864 L24.9688,331.9052 Z " fill="#000000"/><text fill="#D9B8FF" font-family="Helvetica" font-size="17" lengthAdjust="spacing" textLength="453" x="41" y="332.1498">azure_cosmos_db_sql_database_client_encryption_key</text></g><!--class azure_cosmos_db_sql_database_container--><g id="elem_azure_cosmos_db_sql_database_container"><rect codeLine="32" fill="#3D176E" height="39.7891" id="azure_cosmos_db_sql_database_container" rx="2.5" ry="2.5" style="stroke:#000D19;stroke-width:0.5;" width="391" x="184" y="206.58"/><ellipse cx="199" cy="226.4745" fill="#ADD1B2" rx="11" ry="11" style="stroke:#181818;stroke-width:1.0;"/><path d="M201.9688,232.1152 Q201.3906,232.412 200.75,232.5527 Q200.1094,232.7089 199.4063,232.7089 Q196.9063,232.7089 195.5781,231.0683 Q194.2656,229.412 194.2656,226.287 Q194.2656,223.162 195.5781,221.5058 Q196.9063,219.8495 199.4063,219.8495 Q200.1094,219.8495 200.75,220.0058 Q201.4063,220.162 201.9688,220.4589 L201.9688,223.1777 Q201.3438,222.5995 200.75,222.3339 Q200.1563,222.0527 199.5313,222.0527 Q198.1875,222.0527 197.5,223.1308 Q196.8125,224.1933 196.8125,226.287 Q196.8125,228.3808 197.5,229.4589 Q198.1875,230.5214 199.5313,230.5214 Q200.1563,230.5214 200.75,230.2558 Q201.3438,229.9745 201.9688,229.3964 L201.9688,232.1152 Z " fill="#000000"/><text fill="#D9B8FF" font-family="Helvetica" font-size="17" lengthAdjust="spacing" textLength="349" x="218" y="232.3598">azure_cosmos_db_sql_database_container</text></g><!--class azure_cosmos_db_sql_throughput_setting--><g id="elem_azure_cosmos_db_sql_throughput_setting"><rect codeLine="35" fill="#3D176E" height="39.7891" id="azure_cosmos_db_sql_throughput_setting" rx="2.5" ry="2.5" style="stroke:#000D19;stroke-width:0.5;" width="390" x="610.5" y="206.58"/><ellipse cx="625.5" cy="226.4745" fill="#ADD1B2" rx="11" ry="11" style="stroke:#181818;stroke-width:1.0;"/><path d="M628.4688,232.1152 Q627.8906,232.412 627.25,232.5527 Q626.6094,232.7089 625.9063,232.7089 Q623.4063,232.7089 622.0781,231.0683 Q620.7656,229.412 620.7656,226.287 Q620.7656,223.162 622.0781,221.5058 Q623.4063,219.8495 625.9063,219.8495 Q626.6094,219.8495 627.25,220.0058 Q627.9063,220.162 628.4688,220.4589 L628.4688,223.1777 Q627.8438,222.5995 627.25,222.3339 Q626.6563,222.0527 626.0313,222.0527 Q624.6875,222.0527 624,223.1308 Q623.3125,224.1933 623.3125,226.287 Q623.3125,228.3808 624,229.4589 Q624.6875,230.5214 626.0313,230.5214 Q626.6563,230.5214 627.25,230.2558 Q627.8438,229.9745 628.4688,229.3964 L628.4688,232.1152 Z " fill="#000000"/><text fill="#D9B8FF" font-family="Helvetica" font-size="17" lengthAdjust="spacing" textLength="348" x="644.5" y="232.3598">azure_cosmos_db_sql_throughput_setting</text></g><!--link azure_cosmos_db_account to azure_cosmos_db_sql_database--><g id="link_azure_cosmos_db_account_azure_cosmos_db_sql_database"><path codeLine="38" d="M379.5,47.22 C379.5,64.36 379.5,83.28 379.5,100.41 " fill="none" id="azure_cosmos_db_account-to-azure_cosmos_db_sql_database" style="stroke:#1A83AF;stroke-width:2.0;"/><polygon fill="#1A83AF" points="379.5,106.41,383.5,97.41,379.5,101.41,375.5,97.41,379.5,106.41" style="stroke:#1A83AF;stroke-width:2.0;"/></g><!--link azure_cosmos_db_sql_database to azure_cosmos_db_sql_database_client_encryption_key--><g id="link_azure_cosmos_db_sql_database_azure_cosmos_db_sql_database_client_encryption_key"><path codeLine="39" d="M253.66,147.06 C219.84,158.65 187,177.13 166.5,206.58 C141.66,242.27 183.3219,279.3658 217.6719,302.6258 " fill="none" id="azure_cosmos_db_sql_database-to-azure_cosmos_db_sql_database_client_encryption_key" style="stroke:#1A83AF;stroke-width:2.0;"/><polygon fill="#1A83AF" points="222.64,305.99,217.4306,297.6317,218.4999,303.1865,212.945,304.2559,222.64,305.99" style="stroke:#1A83AF;stroke-width:2.0;"/></g><!--link azure_cosmos_db_sql_database to azure_cosmos_db_sql_database_container--><g id="link_azure_cosmos_db_sql_database_azure_cosmos_db_sql_database_container"><path codeLine="40" d="M379.5,147.01 C379.5,164.15 379.5,183.06 379.5,200.2 " fill="none" id="azure_cosmos_db_sql_database-to-azure_cosmos_db_sql_database_container" style="stroke:#1A83AF;stroke-width:2.0;"/><polygon fill="#1A83AF" points="379.5,206.2,383.5,197.2,379.5,201.2,375.5,197.2,379.5,206.2" style="stroke:#1A83AF;stroke-width:2.0;"/></g><!--link azure_cosmos_db_sql_database to azure_cosmos_db_sql_throughput_setting--><g id="link_azure_cosmos_db_sql_database_azure_cosmos_db_sql_throughput_setting"><path codeLine="41" d="M463.92,147.07 C538.51,164.19 640.8621,187.6877 715.4021,204.7977 " fill="none" id="azure_cosmos_db_sql_database-to-azure_cosmos_db_sql_throughput_setting" style="stroke:#1A83AF;stroke-width:2.0;"/><polygon fill="#1A83AF" points="721.25,206.14,713.373,200.2279,716.3767,205.0214,711.5832,208.0251,721.25,206.14" style="stroke:#1A83AF;stroke-width:2.0;"/></g><!--link azure_cosmos_db_sql_database_container to azure_cosmos_db_sql_database_client_encryption_key--><g id="link_azure_cosmos_db_sql_database_container_azure_cosmos_db_sql_database_client_encryption_key"><path codeLine="42" d="M354.8,246.8 C332.89,263.94 305.7649,285.152 283.8649,302.292 " fill="none" id="azure_cosmos_db_sql_database_container-to-azure_cosmos_db_sql_database_client_encryption_key" style="stroke:#1A83AF;stroke-width:2.0;"/><polygon fill="#1A83AF" points="279.14,305.99,288.6927,303.593,283.0774,302.9084,283.7621,297.2931,279.14,305.99" style="stroke:#1A83AF;stroke-width:2.0;"/></g><!--SRC=[hP91JuD048Nl_8fDUcvIRBJjnGIRD7ffZFLc31bsXx81Td5tiA76_owqQX0A9QdNdM_UlFSWaW8PfXaLBCKqG6CT6qkLWO6KUSRetL8dsh1H648udJM7AwteBB265Daz9kz8aaEJU8uaZnLQowvgeplWyTReN8cZF1bGjXoXeXgrJC1QZyZ882UicH6BO1w6JR8fEfeATtQ3BKmRWUORcKmcmbqqaREdUdF_4XkvH-RMIrjhmfRDrea3rUko8cecMq5_vfqU7q48gRRiklRsTFHa59e_xvi8XDvLT0Y9hP-nX0Or5HakMwbmCHVXx2Jyq0KxlAgEmJutw7DjKsrz4VZ0USaI-t2Spmx4lYM-0880B0xbV9x8yeVpKN5JP2IrycCiXc-N_OAioZgpGL4PTHjbEVaMYQeY3njTCSSl8zURJxtLw_YsruBJsy9WcTCz_9luJqqN2hPRT0P-dakB-080]--></g></svg>

<svg xmlns="http://www.w3.org/2000/svg" width="1007" height="352" viewBox="0 0 1007 352"><rect width="261" height="39.789" x="249" y="7" fill="#3D176E" rx="2.5" ry="2.5" style="stroke:#000d19;stroke-width:.5"/><circle cx="264" cy="26.895" r="11" fill="#ADD1B2" style="stroke:#181818;stroke-width:1"/><path d="M266.969 32.535q-.578.297-1.219.438-.64.156-1.344.156-2.5 0-3.828-1.64-1.312-1.657-1.312-4.782t1.312-4.781q1.328-1.656 3.828-1.656.703 0 1.344.156.656.156 1.219.453v2.719q-.625-.578-1.219-.844-.594-.281-1.219-.281-1.344 0-2.031 1.078-.687 1.062-.687 3.156t.687 3.172q.688 1.062 2.031 1.062.625 0 1.219-.265.594-.281 1.219-.86z"/><text x="283" y="32.78" fill="#D9B8FF" font-family="Helvetica" font-size="17" textLength="219">azure_cosmos_db_account</text><rect width="303" height="39.789" x="228" y="106.79" fill="#3D176E" rx="2.5" ry="2.5" style="stroke:#000d19;stroke-width:.5"/><circle cx="243" cy="126.684" r="11" fill="#ADD1B2" style="stroke:#181818;stroke-width:1"/><path d="M245.969 132.325q-.578.297-1.219.438-.64.156-1.344.156-2.5 0-3.828-1.64-1.312-1.657-1.312-4.782t1.312-4.781q1.328-1.656 3.828-1.656.703 0 1.344.156.656.156 1.219.453v2.719q-.625-.579-1.219-.844-.594-.281-1.219-.281-1.344 0-2.031 1.078-.687 1.062-.687 3.156t.687 3.172q.688 1.062 2.031 1.062.625 0 1.219-.265.594-.281 1.219-.86z"/><text x="262" y="132.57" fill="#D9B8FF" font-family="Helvetica" font-size="17" textLength="261">azure_cosmos_db_sql_database</text><rect width="495" height="39.789" x="7" y="306.37" fill="#3D176E" rx="2.5" ry="2.5" style="stroke:#000d19;stroke-width:.5"/><circle cx="22" cy="326.264" r="11" fill="#ADD1B2" style="stroke:#181818;stroke-width:1"/><path d="M24.969 331.905q-.578.297-1.219.438-.64.156-1.344.156-2.5 0-3.828-1.64-1.312-1.657-1.312-4.782t1.312-4.781q1.328-1.656 3.828-1.656.703 0 1.344.156.656.156 1.219.453v2.719q-.625-.579-1.219-.844-.594-.281-1.219-.281-1.343 0-2.031 1.078-.687 1.062-.687 3.156t.687 3.172q.688 1.062 2.031 1.062.625 0 1.219-.265.594-.281 1.219-.86z"/><text x="41" y="332.15" fill="#D9B8FF" font-family="Helvetica" font-size="17" textLength="453">azure_cosmos_db_sql_database_client_encryption_key</text><rect width="391" height="39.789" x="184" y="206.58" fill="#3D176E" rx="2.5" ry="2.5" style="stroke:#000d19;stroke-width:.5"/><circle cx="199" cy="226.475" r="11" fill="#ADD1B2" style="stroke:#181818;stroke-width:1"/><path d="M201.969 232.115q-.578.297-1.219.438-.64.156-1.344.156-2.5 0-3.828-1.64-1.312-1.657-1.312-4.782t1.312-4.781q1.328-1.656 3.828-1.656.703 0 1.344.156.656.156 1.219.453v2.719q-.625-.578-1.219-.844-.594-.281-1.219-.281-1.344 0-2.031 1.078-.687 1.062-.687 3.156t.687 3.172q.688 1.062 2.031 1.062.625 0 1.219-.265.594-.281 1.219-.86z"/><text x="218" y="232.36" fill="#D9B8FF" font-family="Helvetica" font-size="17" textLength="349">azure_cosmos_db_sql_database_container</text><rect width="390" height="39.789" x="610.5" y="206.58" fill="#3D176E" rx="2.5" ry="2.5" style="stroke:#000d19;stroke-width:.5"/><circle cx="625.5" cy="226.475" r="11" fill="#ADD1B2" style="stroke:#181818;stroke-width:1"/><path d="M628.469 232.115q-.578.297-1.219.438-.64.156-1.344.156-2.5 0-3.828-1.64-1.312-1.657-1.312-4.782t1.312-4.781q1.328-1.656 3.828-1.656.703 0 1.344.156.656.156 1.219.453v2.719q-.625-.578-1.219-.844-.594-.281-1.219-.281-1.343 0-2.031 1.078-.687 1.062-.687 3.156t.687 3.172q.688 1.062 2.031 1.062.625 0 1.219-.265.594-.281 1.219-.86z"/><text x="644.5" y="232.36" fill="#D9B8FF" font-family="Helvetica" font-size="17" textLength="348">azure_cosmos_db_sql_throughput_setting</text><path fill="none" d="M379.5 47.22v53.19" style="stroke:#1a83af;stroke-width:2"/><path fill="#1A83AF" d="m379.5 106.41 4-9-4 4-4-4z" style="stroke:#1a83af;stroke-width:2"/><path fill="none" d="M253.66 147.06c-33.82 11.59-66.66 30.07-87.16 59.52-24.84 35.69 16.822 72.786 51.172 96.046" style="stroke:#1a83af;stroke-width:2"/><path fill="#1A83AF" d="m222.64 305.99-5.21-8.358 1.07 5.555-5.555 1.069z" style="stroke:#1a83af;stroke-width:2"/><path fill="none" d="M379.5 147.01v53.19" style="stroke:#1a83af;stroke-width:2"/><path fill="#1A83AF" d="m379.5 206.2 4-9-4 4-4-4z" style="stroke:#1a83af;stroke-width:2"/><path fill="none" d="M463.92 147.07c74.59 17.12 176.942 40.618 251.482 57.728" style="stroke:#1a83af;stroke-width:2"/><path fill="#1A83AF" d="m721.25 206.14-7.877-5.912 3.004 4.793-4.794 3.004z" style="stroke:#1a83af;stroke-width:2"/><path fill="none" d="M354.8 246.8c-21.91 17.14-49.035 38.352-70.935 55.492" style="stroke:#1a83af;stroke-width:2"/><path fill="#1A83AF" d="m279.14 305.99 9.553-2.397-5.616-.685.685-5.615z" style="stroke:#1a83af;stroke-width:2"/></svg>
